!!!COM: Charles Gounod
!!!CNT: Francais
!!!TXO: Francais
!!!OTL: Le Premier Jour de Mai
!!!LYR: Jean Passerat
!!!ENC: Jacob Pegg
!!!YOR: Romantic French Song 1830-1870 -David Tunley, ed.,
!!!YOR: New York: Garland Publishing, Inc., 1995, Vol. 5
!!!ODT: 1855/
!!NB: Vocal melody and text only encoded.
!!NB: First instance of melodic material only encoded.
**kern	**silbe
*clef G2	*
*k[f#c#g#]	*
*M2/4	*
*MM[andantino]	*
!!created: 6/16/03 21:51
!!proofed and posted: 7/21/03 23:18
!!edit time: 20 min.
=9	=9
8r	.
{8a	{Lais-
8dd	-sons
8dd	le
=10	=10
8cc#	lit
8cc#	et
8b	le
8ee	som-
=11	=11
8ee	-meil
8a	Cet-
8b	-te
8cc#	jour-
=12	=12
4cc#	-ne/-
8b}	-e,}
8r	.
=13	=13
2r	.
!!14-21 rests, repeat of 1st phrase
=22	=22
{4b	{Or
8b	que
8cc#	le
=23	=23
8dd#	ciel
8ee	est
8dd#	le
8cc#	plus
=24	=24
8b	gai
8b	En
8cc#	ce
8ff#	gra-
=25	=25
8b	-ci-
8b	-eux
8cc#	moi
8ff#	de
=26	=26
[2b	Mai,
=27	=27
8b]}	|}
{8b	{Ai-
8cc#	-mons
8b	Mi-
=28	=28
2b	-gnon-
=29	=29
8b	-ne!
8b	ai-
8cc#	-mons
8b	Mi-
=30	=30
2b	-gnon-
=31	=31
2ee}	-ne!}
=32	=32
{8a	{Con-
8b	-ten-
4cc#	-tons
=33	=33
8dd	no-
8dd	-tre ar-
8dd	-dent
8cc#	de/-
=34	=34
4b}	-sir,}
{8b	{En
8ff#	ce
=35	=35
8ee	mon-
8dd	-de
4cc#	n'a
=36	=36
8cc#	du
8b	plai-
[4a	-sir
=37	=37
8a]}	|}
{8b	{Qui
8dd	ne
8cc#	s'en
=38	=38
(16cc#	don-
16dd	|
16b	|
16cc#	|
4b)	|
=39	=39
4a}	-ne.}
4r	.
*-	*-
